packages/components/icon/src/assets/icons/delete.svg

<svg xmlns="http://www.w3.org/2000/svg" fill="none" viewBox="0 0 24 24"><path fill="currentColor" fill-rule="evenodd" d="M12.75 2c.2121 0 .3902.07197.5341.21591.1439.14394.2159.32197.2159.53409V4h5c.4091 0 .7614.12121 1.0568.36364.2955.24242.4432.53787.4432.88636V6H4v-.75c0-.34849.14773-.64394.44318-.88636C4.73864 4.12121 5.09091 4 5.5 4h5V2.75c0-.21212.0758-.39015.2273-.53409C10.8788 2.07197 11.053 2 11.25 2h1.5zM19 20.5c0 .4242-.1477.7803-.4432 1.0682-.2954.2879-.6477.4318-1.0568.4318h-11c-.40909 0-.76136-.1439-1.05682-.4318C5.14773 21.2803 5 20.9242 5 20.5V7h14v13.5zM7.75 8.5c-.19697 0-.37121.07197-.52273.21591C7.07576 8.85985 7 9.03788 7 9.25v9.5c0 .2121.07197.3902.21591.5341.14394.1439.32197.2159.53409.2159h.5c.21212 0 .39015-.072.53409-.2159C8.92803 19.1402 9 18.9621 9 18.75v-9.5c0-.21212-.07197-.39015-.21591-.53409C8.64015 8.57197 8.46212 8.5 8.25 8.5h-.5zm4 0c-.197 0-.3712.07197-.5227.21591C11.0758 8.85985 11 9.03788 11 9.25v9.5c0 .2121.072.3902.2159.5341.1439.1439.322.2159.5341.2159h.5c.2121 0 .3902-.072.5341-.2159.1439-.1439.2159-.322.2159-.5341v-9.5c0-.21212-.072-.39015-.2159-.53409-.1439-.14394-.322-.21591-.5341-.21591h-.5zm4 0c-.197 0-.3712.07197-.5227.21591C15.0758 8.85985 15 9.03788 15 9.25v9.5c0 .2121.072.3902.2159.5341.1439.1439.322.2159.5341.2159h.5c.2121 0 .3902-.072.5341-.2159.1439-.1439.2159-.322.2159-.5341v-9.5c0-.21212-.072-.39015-.2159-.53409-.1439-.14394-.322-.21591-.5341-.21591h-.5z" clip-rule="evenodd"/></svg>

<svg width="24" height="24" viewBox="0 0 24 24" fill="none" xmlns="http://www.w3.org/2000/svg">
<path fill-rule="evenodd" clip-rule="evenodd" d="M12.75 2C12.9621 2 13.1402 2.07197 13.2841 2.21591C13.428 2.35985 13.5 2.53788 13.5 2.75V4H18.5C18.9091 4 19.2614 4.12121 19.5568 4.36364C19.8523 4.60606 20 4.90151 20 5.25V6H4V5.25C4 4.90151 4.14773 4.60606 4.44318 4.36364C4.73864 4.12121 5.09091 4 5.5 4H10.5V2.75C10.5 2.53788 10.5758 2.35985 10.7273 2.21591C10.8788 2.07197 11.053 2 11.25 2H12.75ZM19 20.5C19 20.9242 18.8523 21.2803 18.5568 21.5682C18.2614 21.8561 17.9091 22 17.5 22H6.5C6.09091 22 5.73864 21.8561 5.44318 21.5682C5.14773 21.2803 5 20.9242 5 20.5V7H19V20.5ZM7.75 8.5C7.55303 8.5 7.37879 8.57197 7.22727 8.71591C7.07576 8.85985 7 9.03788 7 9.25V18.75C7 18.9621 7.07197 19.1402 7.21591 19.2841C7.35985 19.428 7.53788 19.5 7.75 19.5H8.25C8.46212 19.5 8.64015 19.428 8.78409 19.2841C8.92803 19.1402 9 18.9621 9 18.75V9.25C9 9.03788 8.92803 8.85985 8.78409 8.71591C8.64015 8.57197 8.46212 8.5 8.25 8.5H7.75ZM11.75 8.5C11.553 8.5 11.3788 8.57197 11.2273 8.71591C11.0758 8.85985 11 9.03788 11 9.25V18.75C11 18.9621 11.072 19.1402 11.2159 19.2841C11.3598 19.428 11.5379 19.5 11.75 19.5H12.25C12.4621 19.5 12.6402 19.428 12.7841 19.2841C12.928 19.1402 13 18.9621 13 18.75V9.25C13 9.03788 12.928 8.85985 12.7841 8.71591C12.6402 8.57197 12.4621 8.5 12.25 8.5H11.75ZM15.75 8.5C15.553 8.5 15.3788 8.57197 15.2273 8.71591C15.0758 8.85985 15 9.03788 15 9.25V18.75C15 18.9621 15.072 19.1402 15.2159 19.2841C15.3598 19.428 15.5379 19.5 15.75 19.5H16.25C16.4621 19.5 16.6402 19.428 16.7841 19.2841C16.928 19.1402 17 18.9621 17 18.75V9.25C17 9.03788 16.928 8.85985 16.7841 8.71591C16.6402 8.57197 16.4621 8.5 16.25 8.5H15.75Z" fill="currentColor"/>
</svg>
